public/images/hiw-three.svg

<svg fill="none" height="424" viewBox="0 0 460 424" width="460" xmlns="http://www.w3.org/2000/svg" xmlns:xlink="http://www.w3.org/1999/xlink"><filter id="a" color-interpolation-filters="sRGB" filterUnits="userSpaceOnUse" height="10" width="10" x="329" y="335"><feFlood flood-opacity="0" result="BackgroundImageFix"/><feBlend in="SourceGraphic" in2="BackgroundImageFix" mode="normal" result="shape"/><feGaussianBlur result="effect1_foregroundBlur_714_140" stdDeviation="1"/></filter><filter id="b" color-interpolation-filters="sRGB" filterUnits="userSpaceOnUse" height="8" width="8" x="152" y="224"><feFlood flood-opacity="0" result="BackgroundImageFix"/><feBlend in="SourceGraphic" in2="BackgroundImageFix" mode="normal" result="shape"/><feGaussianBlur result="effect1_foregroundBlur_714_140" stdDeviation=".5"/></filter><filter id="c" color-interpolation-filters="sRGB" filterUnits="userSpaceOnUse" height="12" width="12" x="225" y="86"><feFlood flood-opacity="0" result="BackgroundImageFix"/><feBlend in="SourceGraphic" in2="BackgroundImageFix" mode="normal" result="shape"/><feGaussianBlur result="effect1_foregroundBlur_714_140" stdDeviation="1.5"/></filter><filter id="d" color-interpolation-filters="sRGB" filterUnits="userSpaceOnUse" height="252.8" width="252.8" x="85.6" y="85.6"><feFlood flood-opacity="0" result="BackgroundImageFix"/><feBlend in="SourceGraphic" in2="BackgroundImageFix" mode="normal" result="shape"/><feGaussianBlur result="effect1_foregroundBlur_714_140" stdDeviation="44.2"/></filter><filter id="e" color-interpolation-filters="sRGB" filterUnits="userSpaceOnUse" height="655.8" width="655.8" x="-115.9" y="-114.9"><feFlood flood-opacity="0" result="BackgroundImageFix"/><feBlend in="SourceGraphic" in2="BackgroundImageFix" mode="normal" result="shape"/><feGaussianBlur result="effect1_foregroundBlur_714_140" stdDeviation="114.45"/></filter><linearGradient id="f"><stop offset="0" stop-color="#fb923c"/><stop offset="1" stop-color="#ff5f0d"/></linearGradient><linearGradient id="g" gradientUnits="userSpaceOnUse" x1="127.75" x2="127.75" xlink:href="#f" y1="133.751" y2="53.751"/><linearGradient id="h" gradientUnits="userSpaceOnUse" x1="280.444" x2="280.444" xlink:href="#f" y1="245.923" y2="177.812"/><linearGradient id="i" gradientUnits="userSpaceOnUse" x1="194.577" x2="194.577" xlink:href="#f" y1="388.756" y2="339.646"/><linearGradient id="j" gradientUnits="userSpaceOnUse" x1="460" x2="388" xlink:href="#f" y1="213" y2="213"/><clipPath id="k"><path d="m0 0h424v424h-424z"/></clipPath><g clip-path="url(#k)"><rect fill="#1f1f1f" fill-opacity=".66" height="424" rx="22" width="424"/><g filter="url(#a)"><circle cx="334" cy="340" fill="#ff5f0d" r="3"/></g><g filter="url(#b)"><circle cx="156" cy="228" fill="#ff5f0d" r="3"/></g><g filter="url(#c)"><circle cx="231" cy="92" fill="#ff5f0d" r="3"/></g><g fill="#fff" fill-opacity=".01" stroke="#f97316" stroke-width="1.5"><circle cx="212" cy="212" r="148.25"/><circle cx="212" cy="212" r="81.25"/><circle cx="211.5" cy="211.5" r="18.75"/></g><g filter="url(#d)"><circle cx="212" cy="212" fill="#f97316" fill-opacity=".73" r="38"/></g><g filter="url(#e)"><circle cx="212" cy="213" fill="#f97316" fill-opacity=".53" r="99"/></g><g opacity=".53"><rect fill="url(#g)" height="80" rx="40" transform="matrix(.96592583 .25881905 -.25881905 .96592583 16.867717 -20.621031)" width="82" x="86.75" y="53.751"/><path d="m109.161 123.708 11.058-41.2716 2.644.7085-11.058 41.2711zm14.421-25.7697c.219-1.335-.063-2.4936-.848-3.4758-.786-.9822-2.016-1.6979-3.693-2.1471-1.139-.3053-2.144-.4018-3.015-.2896-.869.1014-1.587.3754-2.156.822-.558.4495-.932 1.0289-1.122 1.7382-.18.5854-.195 1.1344-.044 1.647.161.5156.44.9994.838 1.4514.4.4413.885.8651 1.456 1.2714.574.3957 1.199.7705 1.876 1.1252l2.776 1.504c1.354.708 2.561 1.492 3.621 2.352 1.059.86 1.925 1.8 2.596 2.821s1.106 2.128 1.304 3.322c.21 1.196.135 2.484-.223 3.862-.552 2.018-1.537 3.632-2.956 4.841-1.404 1.202-3.173 1.955-5.305 2.259-2.118.297-4.521.085-7.208-.635-2.665-.714-4.877-1.745-6.636-3.092-1.748-1.343-2.961-2.964-3.639-4.862-.664-1.906-.705-4.054-.122-6.444l6.755 1.81c-.222 1.127-.152 2.137.208 3.028.374.883.983 1.64 1.828 2.27.859.621 1.89 1.093 3.094 1.416 1.182.317 2.255.42 3.217.309.974-.108 1.784-.403 2.432-.886s1.078-1.122 1.292-1.918c.198-.741.145-1.424-.16-2.047-.295-.62-.814-1.22-1.557-1.799-.733-.577-1.662-1.171-2.788-1.784l-3.353-1.866c-2.602-1.423-4.517-3.071-5.743-4.9429-1.226-1.8722-1.507-4.0267-.843-6.4635.525-2.002 1.525-3.606 3-4.8119 1.486-1.2031 3.287-1.9704 5.403-2.3018 2.117-.3315 4.379-.1747 6.786.4704 2.451.6566 4.477 1.6489 6.08 2.9768 1.613 1.3307 2.73 2.8799 3.35 4.6474.621 1.7675.684 3.639.189 5.6145z" fill="#fff"/></g><rect fill="url(#h)" height="68.111" rx="34.0555" transform="matrix(.96592583 -.25881905 .25881905 .96592583 -37.654662 69.608449)" width="69.8138" x="245.537" y="177.812"/><path d="m291.886 220.037-9.647-36.003 2.307-.618 9.647 36.003zm-.345-25.758c-.416-1.105-1.135-1.857-2.157-2.256-1.021-.4-2.263-.404-3.726-.012-.994.267-1.795.632-2.404 1.097-.612.455-1.035.975-1.27 1.561-.226.583-.256 1.184-.09 1.803.12.52.348.941.685 1.263.347.319.769.563 1.266.731.495.159 1.047.267 1.655.325.606.049 1.242.059 1.908.032l2.753-.075c1.332-.055 2.586.011 3.762.198 1.175.188 2.239.521 3.191.999.953.478 1.764 1.125 2.435 1.94.68.813 1.185 1.818 1.516 3.016.463 1.765.422 3.414-.122 4.946-.537 1.521-1.544 2.861-3.022 4.021-1.471 1.148-3.379 2.035-5.723 2.664-2.325.623-4.446.809-6.362.559-1.906-.253-3.53-.949-4.87-2.087-1.333-1.15-2.3-2.755-2.903-4.814l5.893-1.579c.324.948.817 1.68 1.478 2.196.668.505 1.458.811 2.371.918.92.095 1.905.002 2.955-.28 1.031-.276 1.886-.666 2.566-1.169.688-.506 1.171-1.083 1.45-1.731.279-.647.325-1.318.139-2.012-.173-.647-.511-1.139-1.013-1.476-.493-.341-1.147-.567-1.961-.681-.805-.116-1.766-.16-2.884-.131l-3.348.052c-2.586.06-4.751-.349-6.494-1.229s-2.895-2.385-3.456-4.515c-.476-1.742-.421-3.39.168-4.944.598-1.557 1.624-2.922 3.078-4.096 1.454-1.173 3.231-2.041 5.331-2.604 2.138-.573 4.102-.707 5.891-.403 1.8.302 3.319.985 4.559 2.05 1.24 1.064 2.104 2.45 2.592 4.159z" fill="#fff"/><g opacity=".74"><rect fill="url(#i)" height="49.1102" rx="24.5551" transform="matrix(.96592583 -.25881905 .25881905 .96592583 -82.134416 55.419174)" width="50.338" x="169.408" y="339.646"/><path d="m202.347 369.229-6.588-24.588 1.575-.422 6.588 24.588zm-.236-17.591c-.284-.754-.775-1.268-1.473-1.541-.697-.273-1.545-.275-2.544-.008-.679.182-1.226.432-1.642.749-.418.311-.707.666-.867 1.066-.155.398-.175.809-.062 1.231.082.356.238.644.468.863.237.218.525.385.865.499.338.109.714.183 1.13.223.414.033.848.04 1.303.021l1.88-.051c.91-.038 1.766.007 2.569.135s1.529.356 2.179.682c.651.327 1.205.769 1.663 1.326.464.555.809 1.241 1.035 2.059.317 1.205.289 2.331-.083 3.378-.366 1.038-1.055 1.954-2.064 2.746-1.004.784-2.307 1.39-3.908 1.819-1.588.425-3.036.553-4.345.382-1.302-.173-2.41-.648-3.325-1.425-.911-.786-1.572-1.882-1.983-3.288l4.024-1.078c.222.647.558 1.147 1.01 1.5.456.344.995.553 1.619.626.628.065 1.301.001 2.018-.191.704-.188 1.288-.455 1.752-.799.47-.345.8-.739.991-1.181.19-.442.222-.9.095-1.374-.119-.442-.349-.778-.693-1.009-.336-.232-.783-.387-1.339-.464-.549-.08-1.206-.11-1.969-.09l-2.286.036c-1.767.041-3.245-.239-4.435-.84-1.191-.6-1.977-1.628-2.361-3.083-.325-1.19-.287-2.315.115-3.377.408-1.063 1.109-1.995 2.102-2.797.993-.801 2.207-1.394 3.641-1.778 1.46-.391 2.801-.483 4.023-.275 1.229.206 2.267.672 3.113 1.399.847.727 1.437 1.674 1.77 2.841z" fill="#fff"/></g></g><rect fill="#21201f" height="70" rx="35" width="70" x="389" y="178"/><rect height="70" rx="35" stroke="url(#j)" stroke-width="2" width="70" x="389" y="178"/><g fill="#a3a3a3"><path d="m424 223.406c-.632 0-1.156-.524-1.156-1.156v-4.625c0-.632.524-1.156 1.156-1.156s1.156.524 1.156 1.156v4.625c0 .632-.524 1.156-1.156 1.156z"/><path d="m432.636 229.279h-17.267c-2.806 0-5.365-2.158-5.828-4.917l-2.05-12.288c-.339-1.911.601-4.362 2.128-5.58l10.683-8.557c2.066-1.665 5.319-1.649 7.4.016l10.684 8.541c1.511 1.218 2.436 3.669 2.128 5.58l-2.051 12.272c-.462 2.729-3.083 4.933-5.827 4.933zm-8.649-30.262c-.817 0-1.634.246-2.236.724l-10.683 8.572c-.864.694-1.48 2.297-1.295 3.391l2.05 12.272c.278 1.619 1.896 2.991 3.546 2.991h17.267c1.649 0 3.268-1.372 3.545-3.006l2.051-12.272c.169-1.079-.447-2.713-1.295-3.392l-10.684-8.54c-.617-.494-1.449-.74-2.266-.74z"/></g></svg>

<svg width="460" height="424" viewBox="0 0 460 424" fill="none" xmlns="http://www.w3.org/2000/svg">
<g clip-path="url(#clip0_714_140)">
<rect width="424" height="424" rx="22" fill="#1F1F1F" fill-opacity="0.66"/>
<g filter="url(#filter0_f_714_140)">
<circle cx="334" cy="340" r="3" fill="#FF5F0D"/>
</g>
<g filter="url(#filter1_f_714_140)">
<circle cx="156" cy="228" r="3" fill="#FF5F0D"/>
</g>
<g filter="url(#filter2_f_714_140)">
<circle cx="231" cy="92" r="3" fill="#FF5F0D"/>
</g>
<circle cx="212" cy="212" r="148.25" fill="white" fill-opacity="0.01" stroke="#F97316" stroke-width="1.5"/>
<circle cx="212" cy="212" r="81.25" fill="white" fill-opacity="0.01" stroke="#F97316" stroke-width="1.5"/>
<circle cx="211.5" cy="211.5" r="18.75" fill="white" fill-opacity="0.01" stroke="#F97316" stroke-width="1.5"/>
<g filter="url(#filter3_f_714_140)">
<circle cx="212" cy="212" r="38" fill="#F97316" fill-opacity="0.73"/>
</g>
<g filter="url(#filter4_f_714_140)">
<circle cx="212" cy="213" r="99" fill="#F97316" fill-opacity="0.53"/>
</g>
<g opacity="0.53">
<rect x="86.75" y="53.751" width="82" height="80" rx="40" transform="rotate(15 86.75 53.751)" fill="url(#paint0_linear_714_140)"/>
<path d="M109.161 123.708L120.219 82.4364L122.863 83.1449L111.805 124.416L109.161 123.708ZM123.582 97.9383C123.801 96.6033 123.519 95.4447 122.734 94.4625C121.948 93.4803 120.718 92.7646 119.041 92.3154C117.902 92.0101 116.897 91.9136 116.026 92.0258C115.157 92.1272 114.439 92.4012 113.87 92.8478C113.312 93.2973 112.938 93.8767 112.748 94.586C112.568 95.1714 112.553 95.7204 112.704 96.233C112.865 96.7486 113.144 97.2324 113.542 97.6844C113.942 98.1257 114.427 98.5495 114.998 98.9558C115.572 99.3515 116.197 99.7263 116.874 100.081L119.65 101.585C121.004 102.293 122.211 103.077 123.271 103.937C124.33 104.797 125.196 105.737 125.867 106.758C126.538 107.779 126.973 108.886 127.171 110.08C127.381 111.276 127.306 112.564 126.948 113.942C126.396 115.96 125.411 117.574 123.992 118.783C122.588 119.985 120.819 120.738 118.687 121.042C116.569 121.339 114.166 121.127 111.479 120.407C108.814 119.693 106.602 118.662 104.843 117.315C103.095 115.972 101.882 114.351 101.204 112.453C100.54 110.547 100.499 108.399 101.082 106.009L107.837 107.819C107.615 108.946 107.685 109.956 108.045 110.847C108.419 111.73 109.028 112.487 109.873 113.117C110.732 113.738 111.763 114.21 112.967 114.533C114.149 114.85 115.222 114.953 116.184 114.842C117.158 114.734 117.968 114.439 118.616 113.956C119.264 113.473 119.694 112.834 119.908 112.038C120.106 111.297 120.053 110.614 119.748 109.991C119.453 109.371 118.934 108.771 118.191 108.192C117.458 107.615 116.529 107.021 115.403 106.408L112.05 104.542C109.448 103.119 107.533 101.471 106.307 99.5991C105.081 97.7269 104.8 95.5724 105.464 93.1356C105.989 91.1336 106.989 89.5296 108.464 88.3237C109.95 87.1206 111.751 86.3533 113.867 86.0219C115.984 85.6904 118.246 85.8472 120.653 86.4923C123.104 87.1489 125.13 88.1412 126.733 89.4691C128.346 90.7998 129.463 92.349 130.083 94.1165C130.704 95.884 130.767 97.7555 130.272 99.731L123.582 97.9383Z" fill="white"/>
</g>
<rect x="245.537" y="177.812" width="69.8138" height="68.111" rx="34.0555" transform="rotate(-15 245.537 177.812)" fill="url(#paint1_linear_714_140)"/>
<path d="M291.886 220.037L282.239 184.034L284.546 183.416L294.193 219.419L291.886 220.037ZM291.541 194.279C291.125 193.174 290.406 192.422 289.384 192.023C288.363 191.623 287.121 191.619 285.658 192.011C284.664 192.278 283.863 192.643 283.254 193.108C282.642 193.563 282.219 194.083 281.984 194.669C281.758 195.252 281.728 195.853 281.894 196.472C282.014 196.992 282.242 197.413 282.579 197.735C282.926 198.054 283.348 198.298 283.845 198.466C284.34 198.625 284.892 198.733 285.5 198.791C286.106 198.84 286.742 198.85 287.408 198.823L290.161 198.748C291.493 198.693 292.747 198.759 293.923 198.946C295.098 199.134 296.162 199.467 297.114 199.945C298.067 200.423 298.878 201.07 299.549 201.885C300.229 202.698 300.734 203.703 301.065 204.901C301.528 206.666 301.487 208.315 300.943 209.847C300.406 211.368 299.399 212.708 297.921 213.868C296.45 215.016 294.542 215.903 292.198 216.532C289.873 217.155 287.752 217.341 285.836 217.091C283.93 216.838 282.306 216.142 280.966 215.004C279.633 213.854 278.666 212.249 278.063 210.19L283.956 208.611C284.28 209.559 284.773 210.291 285.434 210.807C286.102 211.312 286.892 211.618 287.805 211.725C288.725 211.82 289.71 211.727 290.76 211.445C291.791 211.169 292.646 210.779 293.326 210.276C294.014 209.77 294.497 209.193 294.776 208.545C295.055 207.898 295.101 207.227 294.915 206.533C294.742 205.886 294.404 205.394 293.902 205.057C293.409 204.716 292.755 204.49 291.941 204.376C291.136 204.26 290.175 204.216 289.057 204.245L285.709 204.297C283.123 204.357 280.958 203.948 279.215 203.068C277.472 202.188 276.32 200.683 275.759 198.553C275.283 196.811 275.338 195.163 275.927 193.609C276.525 192.052 277.551 190.687 279.005 189.513C280.459 188.34 282.236 187.472 284.336 186.909C286.474 186.336 288.438 186.202 290.227 186.506C292.027 186.808 293.546 187.491 294.786 188.556C296.026 189.62 296.89 191.006 297.378 192.715L291.541 194.279Z" fill="white"/>
<g opacity="0.74">
<rect x="169.408" y="339.646" width="50.338" height="49.1102" rx="24.5551" transform="rotate(-15 169.408 339.646)" fill="url(#paint2_linear_714_140)"/>
<path d="M202.347 369.229L195.759 344.641L197.334 344.219L203.922 368.807L202.347 369.229ZM202.111 351.638C201.827 350.884 201.336 350.37 200.638 350.097C199.941 349.824 199.093 349.822 198.094 350.089C197.415 350.271 196.868 350.521 196.452 350.838C196.034 351.149 195.745 351.504 195.585 351.904C195.43 352.302 195.41 352.713 195.523 353.135C195.605 353.491 195.761 353.779 195.991 353.998C196.228 354.216 196.516 354.383 196.856 354.497C197.194 354.606 197.57 354.68 197.986 354.72C198.4 354.753 198.834 354.76 199.289 354.741L201.169 354.69C202.079 354.652 202.935 354.697 203.738 354.825C204.541 354.953 205.267 355.181 205.917 355.507C206.568 355.834 207.122 356.276 207.58 356.833C208.044 357.388 208.389 358.074 208.615 358.892C208.932 360.097 208.904 361.223 208.532 362.27C208.166 363.308 207.477 364.224 206.468 365.016C205.464 365.8 204.161 366.406 202.56 366.835C200.972 367.26 199.524 367.388 198.215 367.217C196.913 367.044 195.805 366.569 194.89 365.792C193.979 365.006 193.318 363.91 192.907 362.504L196.931 361.426C197.153 362.073 197.489 362.573 197.941 362.926C198.397 363.27 198.936 363.479 199.56 363.552C200.188 363.617 200.861 363.553 201.578 363.361C202.282 363.173 202.866 362.906 203.33 362.562C203.8 362.217 204.13 361.823 204.321 361.381C204.511 360.939 204.543 360.481 204.416 360.007C204.297 359.565 204.067 359.229 203.723 358.998C203.387 358.766 202.94 358.611 202.384 358.534C201.835 358.454 201.178 358.424 200.415 358.444L198.129 358.48C196.362 358.521 194.884 358.241 193.694 357.64C192.503 357.04 191.717 356.012 191.333 354.557C191.008 353.367 191.046 352.242 191.448 351.18C191.856 350.117 192.557 349.185 193.55 348.383C194.543 347.582 195.757 346.989 197.191 346.605C198.651 346.214 199.992 346.122 201.214 346.33C202.443 346.536 203.481 347.002 204.327 347.729C205.174 348.456 205.764 349.403 206.097 350.57L202.111 351.638Z" fill="white"/>
</g>
</g>
<rect x="389" y="178" width="70" height="70" rx="35" fill="#21201F"/>
<rect x="389" y="178" width="70" height="70" rx="35" stroke="url(#paint3_linear_714_140)" stroke-width="2"/>
<path d="M424 223.406C423.368 223.406 422.844 222.882 422.844 222.25V217.625C422.844 216.993 423.368 216.469 424 216.469C424.632 216.469 425.156 216.993 425.156 217.625V222.25C425.156 222.882 424.632 223.406 424 223.406Z" fill="#A3A3A3"/>
<path d="M432.636 229.279H415.369C412.563 229.279 410.004 227.121 409.541 224.362L407.491 212.074C407.152 210.163 408.092 207.712 409.619 206.494L420.302 197.937C422.368 196.272 425.621 196.288 427.702 197.953L438.386 206.494C439.897 207.712 440.822 210.163 440.514 212.074L438.463 224.346C438.001 227.075 435.38 229.279 432.636 229.279ZM423.987 199.017C423.17 199.017 422.353 199.263 421.751 199.741L411.068 208.313C410.204 209.007 409.588 210.61 409.773 211.704L411.823 223.976C412.101 225.595 413.719 226.967 415.369 226.967H432.636C434.285 226.967 435.904 225.595 436.181 223.961L438.232 211.689C438.401 210.61 437.785 208.976 436.937 208.297L426.253 199.757C425.636 199.263 424.804 199.017 423.987 199.017Z" fill="#A3A3A3"/>
<defs>
<filter id="filter0_f_714_140" x="329" y="335" width="10" height="10" filterUnits="userSpaceOnUse" color-interpolation-filters="sRGB">
<feFlood flood-opacity="0" result="BackgroundImageFix"/>
<feBlend mode="normal" in="SourceGraphic" in2="BackgroundImageFix" result="shape"/>
<feGaussianBlur stdDeviation="1" result="effect1_foregroundBlur_714_140"/>
</filter>
<filter id="filter1_f_714_140" x="152" y="224" width="8" height="8" filterUnits="userSpaceOnUse" color-interpolation-filters="sRGB">
<feFlood flood-opacity="0" result="BackgroundImageFix"/>
<feBlend mode="normal" in="SourceGraphic" in2="BackgroundImageFix" result="shape"/>
<feGaussianBlur stdDeviation="0.5" result="effect1_foregroundBlur_714_140"/>
</filter>
<filter id="filter2_f_714_140" x="225" y="86" width="12" height="12" filterUnits="userSpaceOnUse" color-interpolation-filters="sRGB">
<feFlood flood-opacity="0" result="BackgroundImageFix"/>
<feBlend mode="normal" in="SourceGraphic" in2="BackgroundImageFix" result="shape"/>
<feGaussianBlur stdDeviation="1.5" result="effect1_foregroundBlur_714_140"/>
</filter>
<filter id="filter3_f_714_140" x="85.6" y="85.6" width="252.8" height="252.8" filterUnits="userSpaceOnUse" color-interpolation-filters="sRGB">
<feFlood flood-opacity="0" result="BackgroundImageFix"/>
<feBlend mode="normal" in="SourceGraphic" in2="BackgroundImageFix" result="shape"/>
<feGaussianBlur stdDeviation="44.2" result="effect1_foregroundBlur_714_140"/>
</filter>
<filter id="filter4_f_714_140" x="-115.9" y="-114.9" width="655.8" height="655.8" filterUnits="userSpaceOnUse" color-interpolation-filters="sRGB">
<feFlood flood-opacity="0" result="BackgroundImageFix"/>
<feBlend mode="normal" in="SourceGraphic" in2="BackgroundImageFix" result="shape"/>
<feGaussianBlur stdDeviation="114.45" result="effect1_foregroundBlur_714_140"/>
</filter>
<linearGradient id="paint0_linear_714_140" x1="127.75" y1="133.751" x2="127.75" y2="53.751" gradientUnits="userSpaceOnUse">
<stop stop-color="#FB923C"/>
<stop offset="1" stop-color="#FF5F0D"/>
</linearGradient>
<linearGradient id="paint1_linear_714_140" x1="280.444" y1="245.923" x2="280.444" y2="177.812" gradientUnits="userSpaceOnUse">
<stop stop-color="#FB923C"/>
<stop offset="1" stop-color="#FF5F0D"/>
</linearGradient>
<linearGradient id="paint2_linear_714_140" x1="194.577" y1="388.756" x2="194.577" y2="339.646" gradientUnits="userSpaceOnUse">
<stop stop-color="#FB923C"/>
<stop offset="1" stop-color="#FF5F0D"/>
</linearGradient>
<linearGradient id="paint3_linear_714_140" x1="460" y1="213" x2="388" y2="213" gradientUnits="userSpaceOnUse">
<stop stop-color="#FB923C"/>
<stop offset="1" stop-color="#FF5F0D"/>
</linearGradient>
<clipPath id="clip0_714_140">
<rect width="424" height="424" fill="white"/>
</clipPath>
</defs>
</svg>
